icons/breezeDark/actions/22/engraving.svg

<svg viewBox="0 0 22 22" xmlns="http://www.w3.org/2000/svg" xmlns:xlink="http://www.w3.org/1999/xlink"><linearGradient id="a" gradientUnits="userSpaceOnUse" x1="10" x2="15.5" y1="18.5" y2="8"><stop offset="0" stop-color="#c0c0c0"/><stop offset="1" stop-color="#c0c0c0" stop-opacity="0"/></linearGradient><path d="m6.5 3h9v5l-3.5 10.5h-2l-3.5-10.5z" fill="url(#a)"/><path d="m6.5 3v5.0293785l3.5 10.4706215h2l3.5-10.5451977v-4.9548023" fill="none" stroke="#c0c0c0"/></svg>

<?xml version="1.0" encoding="UTF-8" standalone="no"?>
<svg
   xmlns:dc="http://purl.org/dc/elements/1.1/"
   xmlns:cc="http://creativecommons.org/ns#"
   xmlns:rdf="http://www.w3.org/1999/02/22-rdf-syntax-ns#"
   xmlns:svg="http://www.w3.org/2000/svg"
   xmlns="http://www.w3.org/2000/svg"
   xmlns:xlink="http://www.w3.org/1999/xlink"
   xmlns:sodipodi="http://sodipodi.sourceforge.net/DTD/sodipodi-0.dtd"
   xmlns:inkscape="http://www.inkscape.org/namespaces/inkscape"
   viewBox="0 0 22 22"
   version="1.1"
   id="svg4532"
   sodipodi:docname="stroke-cap-square.svg"
   inkscape:version="0.92.4 (5da689c313, 2019-01-14)">
  <metadata
     id="metadata4536">
    <rdf:RDF>
      <cc:Work
         rdf:about="">
        <dc:format>image/svg+xml</dc:format>
        <dc:type
           rdf:resource="http://purl.org/dc/dcmitype/StillImage" />
        <dc:title></dc:title>
      </cc:Work>
    </rdf:RDF>
  </metadata>
  <sodipodi:namedview
     pagecolor="#ffffff"
     bordercolor="#666666"
     borderopacity="1"
     objecttolerance="10"
     gridtolerance="10"
     guidetolerance="10"
     inkscape:pageopacity="0"
     inkscape:pageshadow="2"
     inkscape:window-width="1835"
     inkscape:window-height="1058"
     id="namedview4534"
     showgrid="true"
     inkscape:zoom="40.227273"
     inkscape:cx="9.5456676"
     inkscape:cy="15.332709"
     inkscape:window-x="77"
     inkscape:window-y="-8"
     inkscape:window-maximized="1"
     inkscape:current-layer="svg4532">
    <inkscape:grid
       type="xygrid"
       id="grid4538"
       empspacing="4"
       spacingy="0.5"
       spacingx="0.5" />
  </sodipodi:namedview>
  <defs
     id="defs3051">
    <linearGradient
       inkscape:collect="always"
       id="linearGradient4650">
      <stop
         style="stop-color:#c0c0c0;stop-opacity:1;"
         offset="0"
         id="stop4646" />
      <stop
         style="stop-color:#c0c0c0;stop-opacity:0;"
         offset="1"
         id="stop4648" />
    </linearGradient>
    <style
       type="text/css"
       id="current-color-scheme">
      .ColorScheme-Text {
        color:#c0c0c0;
      }
      </style>
    <linearGradient
       inkscape:collect="always"
       xlink:href="#linearGradient4650"
       id="linearGradient4652"
       x1="10"
       y1="18.5"
       x2="15.5"
       y2="8"
       gradientUnits="userSpaceOnUse" />
  </defs>
  <path
     style="fill:url(#linearGradient4652);fill-opacity:1;stroke:none;stroke-width:1;stroke-miterlimit:4;stroke-dasharray:none;stroke-opacity:1;fill-rule:nonzero"
     d="m 6.5,3 h 9 V 8 L 12,18.5 H 10 L 6.5,8 Z"
     id="rect4630"
     inkscape:connector-curvature="0"
     sodipodi:nodetypes="ccccccc" />
  <path
     style="fill:none;stroke:#c0c0c0;stroke-width:1px;stroke-linecap:butt;stroke-linejoin:miter;stroke-opacity:1"
     d="M 6.5,3 6.5,8.0293785 10,18.5 h 2 L 15.5,7.9548023 V 3"
     id="path4546"
     inkscape:connector-curvature="0"
     sodipodi:nodetypes="cccccc" />
</svg>
